X:113
T:The Scarlet Mare of Drumcoor (The Embers of Longing) 
R:reel
C: 2004, 2010 L.E. McCullough 
M:4/4
L:1/8
K:Eminor 
|:B~E3 ~G3A|B~E3 edBA|B~E3 ~B3A|AGFG AGdc|
B~E3 ~G3A|B~E3 edBA|B~E3 ~B2GB|A~D3 ~E3A:|
|:B~e3 g~e3|dBAG A~F3|BAGB ABdf|afba g~e3|
b~g3 a~f3|gf (3efg f~B3|E~G3 edBG|1 A~D3 ~E3A:|2  A~D3 ~E3F|]
|:GBBA B2dB|A~D3 F~A3|~G3A (3BAG (3Bcd|(3gfe (3fed ~e3f|
[1 g~B3 ~g3e|f~A3 ~f3e|edBA (3Bcd AG|A~D3 ~E3F:|
[2 g~B3 ~g3e|f~A3 a4|gfed BAGB|A~D3 ~E3A|]

